3.Aero Мебель/app/common/images/logo.svg

<?xml version="1.0" encoding="UTF-8"?>
<svg width="198px" height="40px" viewBox="0 0 198 40" version="1.1" xmlns="http://www.w3.org/2000/svg" xmlns:xlink="http://www.w3.org/1999/xlink">
    <!-- Generator: Sketch 53.2 (72643) - https://sketchapp.com -->
    <title>Combined Shape</title>
    <desc>Created with Sketch.</desc>
    <defs>
        <linearGradient x1="100%" y1="50%" x2="0%" y2="50%" id="linearGradient-1">
            <stop stop-color="#27B6EA" offset="0%"></stop>
            <stop stop-color="#48148F" offset="100%"></stop>
        </linearGradient>
    </defs>
    <g id="Page-1" stroke="none" stroke-width="1" fill="none" fill-rule="evenodd">
        <g id="1440" transform="translate(-70.000000, -50.000000)" fill="url(#linearGradient-1)">
            <path d="M74,50 L156.362416,50 C158.571555,50 160.362416,51.790861 160.362416,54 L160.362416,86 C160.362416,88.209139 158.571555,90 156.362416,90 L74,90 C71.790861,90 70,88.209139 70,86 L70,54 C70,51.790861 71.790861,50 74,50 Z M95.1014623,74.4198895 L96.4258711,77.7348066 L100.057314,77.7348066 L93.3711863,62.2651934 L89.9533573,62.2651934 L83.2885906,77.7348066 L86.8345883,77.7348066 L88.158997,74.4198895 L95.1014623,74.4198895 Z M94.0120293,71.7016575 L89.2697915,71.7016575 L91.6409104,65.7790055 L94.0120293,71.7016575 Z M113.194595,74.8618785 L105.055889,74.8618785 L105.055889,71.281768 L111.998355,71.281768 L111.998355,68.4972376 L105.055889,68.4972376 L105.055889,65.1381215 L112.916896,65.1381215 L112.916896,62.2651934 L101.616699,62.2651934 L101.616699,77.7348066 L113.194595,77.7348066 L113.194595,74.8618785 Z M125.477418,77.7348066 L129.194307,77.7348066 L125.840562,72.7624309 C126.823193,72.3204398 127.581516,71.6832454 128.115555,70.8508287 C128.649593,70.018412 128.916609,69.0276301 128.916609,67.878453 C128.916609,66.729276 128.653154,65.7348108 128.126236,64.8950276 C127.599318,64.0552444 126.848115,63.4070004 125.872605,62.9502762 C124.897094,62.493552 123.747149,62.2651934 122.422733,62.2651934 L115.95022,62.2651934 L115.95022,77.7348066 L119.410772,77.7348066 L119.410772,73.4254144 L122.593625,73.4254144 L125.477418,77.7348066 Z M125.413334,67.878453 C125.413334,68.7329693 125.142758,69.3959461 124.601599,69.8674033 C124.06044,70.3388606 123.270075,70.5745856 122.23048,70.5745856 L119.410772,70.5745856 L119.410772,65.1823204 L122.23048,65.1823204 C123.270075,65.1823204 124.06044,65.4143623 124.601599,65.878453 C125.142758,66.3425438 125.413334,67.0092038 125.413334,67.878453 Z M138.892397,78 C140.444669,78 141.840269,77.6537788 143.079238,76.961326 C144.318207,76.2688731 145.293703,75.3149232 146.005754,74.0994475 C146.717805,72.8839718 147.073826,71.517503 147.073826,70 C147.073826,68.482497 146.717805,67.1160282 146.005754,65.9005525 C145.293703,64.6850768 144.318207,63.7311269 143.079238,63.038674 C141.840269,62.3462212 140.444669,62 138.892397,62 C137.340125,62 135.940966,62.3462212 134.694876,63.038674 C133.448786,63.7311269 132.47329,64.6850768 131.76836,65.9005525 C131.063429,67.1160282 130.710969,68.482497 130.710969,70 C130.710969,71.517503 131.063429,72.8839718 131.76836,74.0994475 C132.47329,75.3149232 133.448786,76.2688731 134.694876,76.961326 C135.940966,77.6537788 137.340125,78 138.892397,78 Z M138.892397,74.9502762 C138.009454,74.9502762 137.211968,74.7403336 136.499917,74.320442 C135.787866,73.9005504 135.228914,73.3149209 134.823044,72.5635359 C134.417175,71.8121509 134.214244,70.9576475 134.214244,70 C134.214244,69.0423525 134.417175,68.1878491 134.823044,67.4364641 C135.228914,66.6850791 135.787866,66.0994496 136.499917,65.679558 C137.211968,65.2596664 138.009454,65.0497238 138.892397,65.0497238 C139.775341,65.0497238 140.572826,65.2596664 141.284878,65.679558 C141.996929,66.0994496 142.555881,66.6850791 142.96175,67.4364641 C143.367619,68.1878491 143.570551,69.0423525 143.570551,70 C143.570551,70.9576475 143.367619,71.8121509 142.96175,72.5635359 C142.555881,73.3149209 141.996929,73.9005504 141.284878,74.320442 C140.572826,74.7403336 139.775341,74.9502762 138.892397,74.9502762 Z M187.156694,77.7524613 L187.135492,68.323488 L182.767876,76.0872011 L181.24133,76.0872011 L176.873714,68.5035162 L176.873714,77.7524613 L173.651007,77.7524613 L173.651007,62 L176.492078,62 L182.047007,71.7890295 L187.517128,62 L190.358199,62 L190.379401,77.7524613 L187.156694,77.7524613 Z M205.560048,74.8270042 L205.560048,77.7524613 L194.068553,77.7524613 L194.068553,62 L205.284422,62 L205.284422,64.9254571 L197.482078,64.9254571 L197.482078,68.3459916 L204.372735,68.3459916 L204.372735,71.1814346 L197.482078,71.1814346 L197.482078,74.8270042 L205.560048,74.8270042 Z M208.337513,62 L220.316655,62 L220.316655,64.9029536 L211.751038,64.9029536 L211.751038,68.1434599 L215.86423,68.1434599 C217.659344,68.1434599 219.026861,68.5410181 219.966822,69.3361463 C220.906782,70.1312745 221.376756,71.2789423 221.376756,72.7791842 C221.376756,74.3544383 220.853778,75.5771171 219.807806,76.4472574 C218.761835,77.3173977 217.284775,77.7524613 215.376584,77.7524613 L208.337513,77.7524613 L208.337513,62 Z M215.185766,75.0520394 C216.06212,75.0520394 216.733511,74.8682625 217.199958,74.5007032 C217.666405,74.133144 217.899624,73.5968155 217.899624,72.8917018 C217.899624,71.5114793 216.995014,70.8213783 215.185766,70.8213783 L211.751038,70.8213783 L211.751038,75.0520394 L215.185766,75.0520394 Z M235.4761,74.8270042 L235.4761,77.7524613 L223.984604,77.7524613 L223.984604,62 L235.200474,62 L235.200474,64.9254571 L227.39813,64.9254571 L227.39813,68.3459916 L234.288787,68.3459916 L234.288787,71.1814346 L227.39813,71.1814346 L227.39813,74.8270042 L235.4761,74.8270042 Z M251.483626,62 L251.483626,77.7524613 L248.091302,77.7524613 L248.091302,64.9704641 L243.002817,64.9704641 L242.896807,68.2559775 C242.826133,70.4913379 242.656519,72.3028529 242.387959,73.6905767 C242.119398,75.0783004 241.670627,76.1434562 241.04163,76.8860759 C240.412634,77.6286957 239.532759,78 238.401979,78 C237.935532,78 237.37015,77.9174879 236.705817,77.7524613 L236.917837,74.6694796 C237.101589,74.7294893 237.30654,74.7594937 237.532696,74.7594937 C238.352511,74.7594937 238.92496,74.2456685 239.25006,73.2180028 C239.575159,72.1903371 239.78011,70.5813518 239.864918,68.3909986 L240.076938,62 L251.483626,62 Z M262.381464,67.1758087 C264.190713,67.1758087 265.579431,67.6033713 266.547662,68.4585091 C267.515892,69.313647 268,70.5813324 268,72.2616034 C268,74.0468913 267.466421,75.4083404 266.399247,76.3459916 C265.332074,77.2836428 263.830279,77.7524613 261.893818,77.7524613 L255.193979,77.7524613 L255.193979,62 L258.607505,62 L258.607505,67.1758087 L262.381464,67.1758087 Z M261.703,75.0520394 C262.593489,75.0520394 263.289615,74.8195054 263.791399,74.3544304 C264.293183,73.8893554 264.544071,73.2142567 264.544071,72.3291139 C264.544071,70.6938502 263.597056,69.8762307 261.703,69.8762307 L258.607505,69.8762307 L258.607505,75.0520394 L261.703,75.0520394 Z" id="Combined-Shape"></path>
        </g>
    </g>
</svg>

<svg width="198" height="40" xmlns="http://www.w3.org/2000/svg">
  <defs>
    <linearGradient x1="100%" y1="50%" x2="0%" y2="50%" id="a">
      <stop stop-color="#27B6EA" offset="0%"/>
      <stop stop-color="#48148F" offset="100%"/>
    </linearGradient>
  </defs>
  <path d="M74 50h82.362a4 4 0 0 1 4 4v32a4 4 0 0 1-4 4H74a4 4 0 0 1-4-4V54a4 4 0 0 1 4-4zm21.101 24.42l1.325 3.315h3.631l-6.686-15.47h-3.418l-6.664 15.47h3.546l1.324-3.315h6.942zm-1.089-2.718H89.27l2.37-5.923 2.372 5.923zm19.183 3.16h-8.14v-3.58h6.943v-2.785h-6.942v-3.359h7.86v-2.873h-11.3v15.47h11.579v-2.873zm12.282 2.873h3.717l-3.353-4.973c.982-.442 1.74-1.079 2.275-1.911.534-.833.8-1.823.8-2.973 0-1.149-.263-2.143-.79-2.983-.527-.84-1.278-1.488-2.253-1.945-.976-.456-2.126-.685-3.45-.685h-6.473v15.47h3.46v-4.31h3.184l2.883 4.31zm-.064-9.857c0 .855-.27 1.518-.811 1.99-.542.47-1.332.707-2.372.707h-2.82v-5.393h2.82c1.04 0 1.83.232 2.372.696.54.465.811 1.131.811 2zM138.893 78c1.552 0 2.947-.346 4.186-1.039a7.663 7.663 0 0 0 2.927-2.862c.712-1.215 1.068-2.581 1.068-4.099 0-1.518-.356-2.884-1.068-4.1a7.663 7.663 0 0 0-2.927-2.861c-1.239-.693-2.634-1.039-4.187-1.039-1.552 0-2.951.346-4.197 1.039a7.565 7.565 0 0 0-2.927 2.862c-.705 1.215-1.057 2.581-1.057 4.099 0 1.518.352 2.884 1.057 4.1a7.565 7.565 0 0 0 2.927 2.861c1.246.693 2.645 1.039 4.197 1.039zm0-3.05c-.884 0-1.681-.21-2.393-.63a4.45 4.45 0 0 1-1.677-1.756c-.406-.752-.609-1.606-.609-2.564s.203-1.812.609-2.564a4.45 4.45 0 0 1 1.677-1.756c.712-.42 1.51-.63 2.392-.63.883 0 1.68.21 2.393.63a4.45 4.45 0 0 1 1.677 1.756c.406.752.609 1.606.609 2.564s-.203 1.812-.61 2.564a4.45 4.45 0 0 1-1.676 1.756c-.712.42-1.51.63-2.393.63zm48.264 2.802l-.022-9.429-4.367 7.764h-1.527l-4.367-7.583v9.248h-3.223V62h2.841l5.555 9.789 5.47-9.789h2.841l.021 15.752h-3.222zm18.403-2.925v2.925h-11.491V62h11.215v2.925h-7.802v3.421h6.89v2.835h-6.89v3.646h8.078zM208.338 62h11.979v2.903h-8.566v3.24h4.113c1.795 0 3.163.398 4.103 1.193s1.41 1.943 1.41 3.443c0 1.575-.523 2.798-1.57 3.668-1.045.87-2.522 1.305-4.43 1.305h-7.04V62zm6.848 13.052c.876 0 1.548-.184 2.014-.551.466-.368.7-.904.7-1.61 0-1.38-.905-2.07-2.714-2.07h-3.435v4.231h3.435zm20.29-.225v2.925h-11.491V62H235.2v2.925h-7.802v3.421h6.89v2.835h-6.89v3.646h8.078zM251.484 62v15.752h-3.393V64.97h-5.088l-.106 3.286c-.07 2.235-.24 4.047-.509 5.435-.269 1.387-.717 2.452-1.346 3.195-.63.743-1.51 1.114-2.64 1.114-.466 0-1.032-.083-1.696-.248l.212-3.083c.184.06.389.09.615.09.82 0 1.392-.513 1.717-1.541.325-1.028.53-2.637.615-4.827l.212-6.391h11.407zm10.897 5.176c1.81 0 3.198.427 4.167 1.283.968.855 1.452 2.122 1.452 3.803 0 1.785-.534 3.146-1.6 4.084-1.068.938-2.57 1.406-4.506 1.406h-6.7V62h3.414v5.176h3.773zm-.678 7.876c.89 0 1.587-.232 2.088-.698.502-.465.753-1.14.753-2.025 0-1.635-.947-2.453-2.841-2.453h-3.095v5.176h3.095z" transform="translate(-70 -50)" fill="url(#a)" fill-rule="evenodd"/>
</svg>
